X:2
T:Killiecrankie
T:Harmony 1
C:arr Adam Blaine
R:March
M:4/4
L:1/8
K:D
[| {g}f>g |{ag}a3 A {GAG}A2 {g}B{d}c | {Gdc}d2 {e}G2 {gGd}G3 d  | {g}d2 A2 d2 e2 |d2 d2 dc {g}ae | 
f2 f2 f2 fe | g2 d2 B2 d2 | d2 d2 a2 a2 | a2 g2 f2 fe ||
d2 A2 d2 af | d2 d2 d2 g2 |  {g}d2 A2 d2 e2 |d2 d2 dc {g}ae |
d2 c2 B2 af | d2 B2 d2 d2 |  d2 d2 a2 a2 | a2 g2 f4 |]

